src/images/footer/medium.svg

<svg width="25" height="28" viewBox="0 0 25 28" fill="none" xmlns="http://www.w3.org/2000/svg">
<g clip-path="url(#clip0)">
<path d="M0.5 1.75V26.25H25V1.75H0.5ZM20.8547 7.55234L19.5422 8.81016C19.4273 8.89766 19.3727 9.03984 19.3945 9.17656V18.4352C19.3727 18.5773 19.4273 18.7195 19.5422 18.8016L20.8273 20.0594V20.3383H14.3742V20.0703L15.7031 18.7797C15.8344 18.6484 15.8344 18.6102 15.8344 18.4133V10.9266L12.1375 20.3109H11.6398L7.33594 10.9266V17.2156C7.29766 17.4781 7.39062 17.7461 7.57656 17.9375L9.30469 20.032V20.3109H4.39375V20.032L6.12188 17.9375C6.30781 17.7461 6.38984 17.4781 6.34609 17.2156V9.94219C6.36797 9.73984 6.29141 9.54297 6.13828 9.40625L4.60156 7.55234V7.27344H9.37578L13.0617 15.3672L16.3047 7.27891H20.8547V7.55234Z" fill="#52525B"/>
</g>
<defs>
<clipPath id="clip0">
<rect x="0.5" width="24.5" height="28" fill="white"/>
</clipPath>
</defs>
</svg>

<svg width="25" height="28" fill="none" xmlns="http://www.w3.org/2000/svg"><g clip-path="url(#clip0)"><path d="M.5 1.75v24.5H25V1.75H.5zm20.355 5.802L19.542 8.81a.385.385 0 00-.148.367v9.258a.377.377 0 00.148.367l1.285 1.257v.28h-6.453v-.269l1.33-1.29c.13-.132.13-.17.13-.367v-7.486l-3.697 9.384h-.497l-4.304-9.384v6.289a.865.865 0 00.24.721l1.729 2.095v.279H4.394v-.279l1.728-2.095a.837.837 0 00.224-.721V9.942a.624.624 0 00-.208-.536L4.602 7.552v-.279h4.774l3.686 8.094 3.243-8.088h4.55v.273z" fill="#52525B"/></g><defs><clipPath id="clip0"><path fill="#fff" d="M.5 0H25v28H.5z"/></clipPath></defs></svg>
